dist/assets/uwm-icons/icon_patient_resources.svg

<?xml version="1.0" encoding="UTF-8"?>
<svg width="15px" height="18px" viewBox="0 0 15 18" version="1.1" xmlns="http://www.w3.org/2000/svg" xmlns:xlink="http://www.w3.org/1999/xlink">
    <!-- Generator: Sketch 48.2 (47327) - http://www.bohemiancoding.com/sketch -->
    <title>icon_patient_resources</title>
    <desc>Created with Sketch.</desc>
    <defs></defs>
    <g id="Icons" stroke="none" stroke-width="1" fill="none" fill-rule="evenodd">
        <g id="icon_patient_resources" transform="translate(-4.000000, -3.000000)">
            <rect id="Rectangle" x="0" y="0" width="24" height="24"></rect>
            <g id="Group-4" transform="translate(4.000000, 3.000000)" fill="#000000">
                <path d="M13.9755319,15.8545552 C13.9755319,16.5463138 13.397234,17.1086586 12.6861702,17.1086586 L2.17276596,17.1086586 C1.46170213,17.1086586 0.883404255,16.5463138 0.883404255,15.8545552 L0.883404255,2.05321034 C0.883404255,1.36145172 1.46170213,0.799106897 2.17276596,0.799106897 L9.66351064,0.799106897 C9.72159574,0.799106897 9.77840426,0.81027931 9.83585106,0.815865517 L9.83585106,2.81355517 C9.83585106,3.88424483 10.731383,4.75476207 11.8321277,4.75476207 L13.9452128,4.75476207 C13.9643617,4.8546931 13.9755319,4.95617586 13.9755319,5.05952069 L13.9755319,15.8545552 Z M13.9969149,3.41965862 L11.3948936,0.822072414 C10.9423404,0.37052069 10.311383,0.111693103 9.66351064,0.111693103 L2.17276596,0.111693103 C1.07202128,0.111693103 0.176489362,0.98252069 0.176489362,2.05321034 L0.176489362,15.8545552 C0.176489362,16.9252448 1.07202128,17.7960724 2.17276596,17.7960724 L12.6861702,17.7960724 C13.7865957,17.7960724 14.6821277,16.9252448 14.6821277,15.8545552 L14.6821277,5.05952069 C14.6821277,4.44286552 14.438617,3.86034828 13.9969149,3.41965862 Z" id="Fill-109"></path>
                <path d="M11.9618617,13.2160345 C11.8469681,13.3572414 11.6749468,13.4382414 11.4898404,13.4382414 L3.36909574,13.4382414 C3.18398936,13.4382414 3.01164894,13.356931 2.89675532,13.2157241 C2.77994681,13.0723448 2.7381383,12.8873793 2.7818617,12.7083103 C3.14281915,11.2236207 4.26654255,9.98565517 5.73079787,9.44224138 C6.22228723,9.74762069 6.80409574,9.927 7.42930851,9.927 C8.05484043,9.927 8.63664894,9.74762069 9.1281383,9.44224138 C10.5927128,9.98596552 11.7151596,11.2202069 12.0770745,12.7073793 C12.1207979,12.8864483 12.0786702,13.0723448 11.9618617,13.2160345 M7.42930851,4.45593103 C8.78569149,4.45593103 9.88930851,5.5287931 9.88930851,6.84744828 C9.88930851,7.61989655 9.50920213,8.30606897 8.92356383,8.74365517 C8.87664894,8.76413793 8.83515957,8.79362069 8.80132979,8.83210345 C8.40909574,9.08937931 7.93707447,9.23958621 7.42930851,9.23958621 C6.07324468,9.23958621 4.96994681,8.16641379 4.96994681,6.84744828 C4.96994681,5.5287931 6.07324468,4.45593103 7.42930851,4.45593103 M9.73867021,8.94817241 C10.2687766,8.39731034 10.5962234,7.65993103 10.5962234,6.84744828 C10.5962234,5.15017241 9.17569149,3.76882759 7.42930851,3.76882759 C5.68356383,3.76882759 4.26303191,5.15017241 4.26303191,6.84744828 C4.26303191,7.65993103 4.59015957,8.39762069 5.12026596,8.94817241 C3.61643617,9.63186207 2.47835106,10.9688276 2.09409574,12.5500345 C2.00026596,12.9348621 2.09090426,13.3327241 2.34239362,13.6421379 C2.59228723,13.949069 2.96632979,14.1253448 3.36909574,14.1253448 L11.4898404,14.1253448 C11.8922872,14.1253448 12.2666489,13.949069 12.5159043,13.6424483 C12.7680319,13.3330345 12.8586702,12.9345517 12.7648404,12.5491034 C12.3793085,10.9657241 11.2428191,9.63124138 9.73867021,8.94817241" id="Fill-111"></path>
                <path d="M6.14735106,6.84760345 C6.14735106,6.1605 6.7227766,5.60094828 7.42937234,5.60094828 C7.62469149,5.60094828 7.78298936,5.44732759 7.78298936,5.25739655 C7.78298936,5.06746552 7.62469149,4.91384483 7.42937234,4.91384483 C6.3327766,4.91384483 5.44043617,5.78094828 5.44043617,6.84760345 C5.44043617,7.03753448 5.59873404,7.19115517 5.79405319,7.19115517 C5.98937234,7.19115517 6.14735106,7.03753448 6.14735106,6.84760345" id="Fill-113"></path>
            </g>
        </g>
    </g>
</svg>

<svg width="15" height="18" xmlns="http://www.w3.org/2000/svg"><g fill="none" fill-rule="evenodd"><path d="M-4-3h24v24H-4z"/><g fill="#000"><path d="M13.976 15.855c0 .691-.579 1.254-1.29 1.254H2.173c-.711 0-1.29-.563-1.29-1.254V2.053C.883 1.361 1.462.8 2.173.8h7.49c.059 0 .115.011.173.017v1.998c0 1.07.895 1.94 1.996 1.94h2.113c.02.1.03.202.03.306v10.795zm.02-12.435l-2.6-2.598a2.466 2.466 0 0 0-1.731-.71H2.173C1.072.112.176.982.176 2.053v13.802c0 1.07.896 1.941 1.997 1.941h10.513c1.1 0 1.996-.87 1.996-1.941V5.06c0-.617-.243-1.2-.685-1.64z"/><path d="M11.962 13.216a.605.605 0 0 1-.472.222H3.37a.606.606 0 0 1-.473-.222.58.58 0 0 1-.115-.508c.36-1.484 1.485-2.722 2.949-3.266a3.209 3.209 0 0 0 1.698.485 3.21 3.21 0 0 0 1.7-.485c1.464.544 2.586 1.778 2.948 3.265a.582.582 0 0 1-.115.509m-4.533-8.76c1.357 0 2.46 1.073 2.46 2.391 0 .773-.38 1.46-.965 1.897a.345.345 0 0 0-.123.088 2.494 2.494 0 0 1-1.372.408c-1.356 0-2.46-1.074-2.46-2.393 0-1.318 1.104-2.391 2.46-2.391m2.31 4.492a3.02 3.02 0 0 0 .857-2.1c0-1.698-1.42-3.08-3.167-3.08-1.745 0-3.166 1.382-3.166 3.08 0 .812.327 1.55.857 2.1-1.504.684-2.642 2.02-3.026 3.602a1.25 1.25 0 0 0 .248 1.092c.25.307.624.483 1.027.483h8.12c.403 0 .778-.176 1.027-.483a1.25 1.25 0 0 0 .249-1.093c-.386-1.583-1.522-2.918-3.026-3.6"/><path d="M6.147 6.848c0-.688.576-1.247 1.282-1.247a.349.349 0 0 0 .354-.344.349.349 0 0 0-.354-.343c-1.096 0-1.989.867-1.989 1.934 0 .19.159.343.354.343a.348.348 0 0 0 .353-.343"/></g></g></svg>
